icons/svg/24x24/game console controller/filled.svg

<svg width="24" height="24" fill="none" xmlns="http://www.w3.org/2000/svg">
  <path fill-rule="evenodd" clip-rule="evenodd" d="M17.5 14a1.5 1.5 0 11.001-3.001A1.5 1.5 0 0117.5 14zM14 9.5a1.5 1.5 0 113.001.001A1.5 1.5 0 0114 9.5zM11 12H9v2H7v-2H5v-2h2V8h2v2h2v2zm10.721-5.649C20.932 4.222 19.211 3 17 3a5.02 5.02 0 00-4 2h-2a5.02 5.02 0 00-4-2C4.789 3 3.068 4.222 2.279 6.351 1.347 8.865 1 10.938 1 14c0 3.484 1.237 7 4 7 2.851 0 4.216-2.654 4.725-4h4.55c.509 1.346 1.874 4 4.725 4 2.763 0 4-3.516 4-7 0-3.062-.347-5.135-1.279-7.649z" fill="#000"/>
</svg>

<svg xmlns="http://www.w3.org/2000/svg" width="24" height="24" viewBox="0 0 24 24">
  <path fill-rule="evenodd" d="M17.5,14 C16.672,14 16,13.328 16,12.5 C16,11.672 16.672,11 17.5,11 C18.328,11 19,11.672 19,12.5 C19,13.328 18.328,14 17.5,14 L17.5,14 Z M14,9.5 C14,8.672 14.672,8 15.5,8 C16.328,8 17,8.672 17,9.5 C17,10.328 16.328,11 15.5,11 C14.672,11 14,10.328 14,9.5 L14,9.5 Z M11,12 L9,12 L9,14 L7,14 L7,12 L5,12 L5,10 L7,10 L7,8 L9,8 L9,10 L11,10 L11,12 Z M21.721,6.351 C20.932,4.222 19.211,3 17,3 C15.421,3 13.937,3.754 13,5 L11,5 C10.063,3.754 8.579,3 7,3 C4.789,3 3.068,4.222 2.279,6.351 C1.347,8.865 1,10.938 1,14 C1,17.484 2.237,21 5,21 C7.851,21 9.216,18.346 9.725,17 L14.275,17 C14.784,18.346 16.149,21 19,21 C21.763,21 23,17.484 23,14 C23,10.938 22.653,8.865 21.721,6.351 L21.721,6.351 Z"/>
</svg>
